X:1
T:Kevin Keegan's Waltz
M:3/4
L:/14
K:Em
C:Kevin Keegan
B,D|"Em"E2F|G2F|E>F E/D/|B,2D|"G"G2F|"C"G2"D"A |"G"(B3 |B)GA|!
"Em" Be2 | "D" d>ed | "Em" B2A | B2A | "C" G2E | "G" D2B, | "D" (D3 | D) B,D|!
"Em"E2F|G2F|E>F E/D/|B,2D|"G"G2F|"C"G2"D"A |"G"(B3 |B)GA|!
"Em" Be2 | "Bm" d>ed | "Em" B>d B/A/ | B2A | "C" G2E | "(D)" E2D | "Em"(E3 | E2) (3B/c/d/|!
"C"e2g|e2d"G"B2A|B2A|"C"G2F|G2"D"A|"G"B3- | BGA|!
"Em" Be2 | "D" d>ed | "Em" B>d B/A/ | B2A | "C" G2E | "G" D2B, | "D" (D3 | D) B,D|!
"Em"E2F|G2F|E>F E/D/|B,2D|"G"G2F|"C"G2"D"A |"G"(B3 |B)GA|!
"Em" Be2 | "Bm" d>ed | "Em" B>d B/A/ | B2A | "C" G2E | "(D)" E2D | "Em"(E3 | E)|]!
